X:1
T:Gee Baby, Ain't I Good to You
C:Don Redman / Andy Razaf
R:(Slow Blues)
M:4/4
L:1/8
K:Eb
"C7"c2-(3cGA "Ab7"BE2 F|"G7"G2-(3GA^F "C7"G4|
"F7"_G2 (3GE-E "Bb7"(3GG=F- FE|"Eb6"E4 "G7"z=G3|
"C7"c2-(3cGA "Ab7"BE2 F|"G7"G2-(3GA^F "C7"G4|
"F7"_G2 (3GE-E "Bb7"(3GG=F- FE|"Eb6"E6"Eb7"y2 z2||
"Ab6"zF (3F=EF "Ao7"(3F_E_G- GF|"Eb6/Bb"z^F (3=GcB-"Eb7"B4|
"Ab6"zc (3=GGG "Ao7"G4|"Dm7b5"zF (3FED- "G7"D4||
"C7"c2-(3cGA "Ab7"BE2 F|"G7"G2-(3GA^F "C7"G4|
"F7"_G2 (3GE-E "Bb7"(3GG=F- FE|"Eb6"E4 "(Ab7"z4 "G7)"y2|]